assets/svg/spyglass-black.svg

<svg height="28" viewBox="0 0 30 28" width="30" xmlns="http://www.w3.org/2000/svg"><path d="m100.396971 94.6876053 8.725285 8.7252857-1.58711 1.587109-8.6128505-8.6128509c-2.0095882 1.8958621-4.7189504 3.0579679-7.699737 3.0579679-6.1980479 0-11.2225585-5.0245106-11.2225585-11.2225585s5.0245106-11.2225585 11.2225585-11.2225585 11.2225585 5.0245106 11.2225585 11.2225585c0 2.4072417-.75792 4.6374618-2.048146 6.4650468zm-9.1744125 2.513c4.9584383 0 8.9780465-4.0196085 8.9780465-8.9780468s-4.0196082-8.9780468-8.9780465-8.9780468-8.9780468 4.0196085-8.9780468 8.9780468 4.0196085 8.9780468 8.9780468 8.9780468z" fill="#111" fill-rule="evenodd" transform="translate(-80 -77)"/></svg>

<?xml version="1.0" encoding="UTF-8"?>
<svg width="30px" height="28px" viewBox="0 0 30 28" version="1.1" xmlns="http://www.w3.org/2000/svg" xmlns:xlink="http://www.w3.org/1999/xlink">
    <!-- Generator: Sketch 48.1 (47250) - http://www.bohemiancoding.com/sketch -->
    <title>Combined Shape</title>
    <desc>Created with Sketch.</desc>
    <defs></defs>
    <g id="Header-Desktop" stroke="none" stroke-width="1" fill="none" fill-rule="evenodd" transform="translate(-80.000000, -77.000000)">
        <path d="M100.396971,94.6876053 L109.122256,103.412891 L107.535146,105 L98.9222955,96.3871491 C96.9127073,98.2830112 94.2033451,99.445117 91.2225585,99.445117 C85.0245106,99.445117 80,94.4206064 80,88.2225585 C80,82.0245106 85.0245106,77 91.2225585,77 C97.4206064,77 102.445117,82.0245106 102.445117,88.2225585 C102.445117,90.6298002 101.687197,92.8600203 100.396971,94.6876053 Z M91.2225585,97.2006053 C96.1809968,97.2006053 100.200605,93.1809968 100.200605,88.2225585 C100.200605,83.2641202 96.1809968,79.2445117 91.2225585,79.2445117 C86.2641202,79.2445117 82.2445117,83.2641202 82.2445117,88.2225585 C82.2445117,93.1809968 86.2641202,97.2006053 91.2225585,97.2006053 Z" id="Combined-Shape" fill="#111111"></path>
    </g>
</svg>
